X: 1494
T: Golden Blossoms
C:Ralph Pride, Goulburn, Australia
B: australian traditional tunes wiki
M:3/4
L:1/4
R: Waltz
Q: 1/4=100
K:Em
V:1 
B/A/|"Em"GEE|E2B/A/|GEE|E2E|"Am"A>Bc|e2c|"Em"cB2-|B2 B|
"Am"c>BA|"B7"AFA|"Em"BAG|E2F|"C"G>AG|"D7"FED|"Em"E3-|E2A/B/|
"Am"cAA|e2 d/c/|"Em"cBB|B2 E|"Am"A>Bc|e2d|"B7"cB2-|B2e/f/|
"Em"g>fe|edB|"Am"c>BA|"C"e2d/c/|"B"B>cB|"B7"A2F|"Em"GE2-|E2|]
% abcbook-tune_id 6342d53a17127ce754f8e78a


% abcbook-boost 0
% abcbook-tablature 
% abcbook-transpose 
% abcbook-lastupdated 1665324367764
% abcbook-soundfonts 
% abcbook-repeats 1
% NFF Book 2018

